X: 114
T: Green Hills of Tyrol -- Reel
R:reel
B:Ryan's Mammoth Collection
Z:Contributed by Ray Davies,  ray:davies99.freeserve.co.uk
M:4/4
L:1/8
K: G
|: dc| BGFG BGAc | BGDC DB,DC  | B,G,B,D ECEG | FDEF GBdc |
BGFG BGAc     | BGDC B,G,DC | B,G,B,D ECEG | FDEF G2 :|
|: (3gfg| bgfg egdg|caBg AfGe|FdEc DBCA|B,GA,F G,B,DF|
GABc dBGB | ABcA BGDC | B,G,B,D ECEG |1 FDEF G2 :|2 FDEF G4 |]
F: http://abcnotation.com/tunePage?a=trillian.mit.edu/~jc/music/book/ryan-cole/Sets/GH/0036

